X: 25495
T: Marga's Moment
R: slip jig
M: 9/8
K: Dmajor
M:7/8
d2 cA dcA|G2 D2 GDG|A2 D2 ADA|AE cE ABc|
d2 cA dcA|G2 D2 GDG|A2 D2 ABc|e2 cz cBc|
d2 c/B/A dcA|G2 D2 GDG|A2 D2 ADA|AE cE ABc|
d2 cA dcA|G2 D2 GDG|A2 D2 AGF|Gz GF EED||
AB d2 fed|G2 A/B/d a3|ag gf efa|gg fg edc|
B2 d2 fed|G2 A/B/d a3|ag gf efa|gg fg e/f/e/d/c/A/|
B2 d2 fed|G2 A/B/d a3|ag gf efa|gg fg edc|
B2 d2 fed|G2 A/B/d gab|aa gf efa|gg fg edc||

